svgs/boom_beach.svg

<?xml version="1.0" encoding="utf-8" standalone="no"?><svg xmlns:android="http://schemas.android.com/apk/res/android" height="50.8" width="50.799999" xmlns="http://www.w3.org/2000/svg">

    <path android:fillAlpha="0" d="M 29.0518 25.2162 C 32.519 29.3921 31.935 35.925 27.6963 40.3797 C 23.4576 44.8344 16.9218 45.7842 12.5261 42.5842 C 8.1303 39.3841 7.28248 33.0593 10.5582 27.9036 C 13.8339 22.7478 20.184 20.4125 25.2973 22.483" fill="#000000" stroke="#000000" stroke-linejoin="bevel" stroke-width="3.175"/>
    <path android:fillAlpha="0" d="M 24.352 21.4372 L 21.7881 11.8686 L 27.3347 6.32204 L 31.0708 20.2655" fill="#000000" stroke="#000000" stroke-linejoin="round" stroke-width="3.175"/>
    <path android:fillAlpha="0" d="M 30.6444 25.7684 L 40.1844 23.2121 L 42.2145 15.6354 L 30.1546 18.8668" fill="#000000" stroke="#000000" stroke-linejoin="round" stroke-width="3.175"/>
</svg>

<svg xmlns="http://www.w3.org/2000/svg" width="192" height="192" viewBox="0 0 50.8 50.8"><g style="stroke-dasharray:none;stroke-miterlimit:4;stroke-width:3.175" fill="none"><path style="fill:#000;fill-opacity:0;stroke:#000;stroke-dasharray:none;stroke-linecap:butt;stroke-linejoin:bevel;stroke-miterlimit:4;stroke-opacity:1;stroke-width:3.175" d="M29.052 25.216c3.467 4.176 2.883 10.709-1.356 15.164-4.238 4.454-10.774 5.404-15.17 2.204-4.396-3.2-5.244-9.525-1.968-14.68 3.276-5.156 9.626-7.491 14.74-5.421"/><path style="fill:#000;fill-opacity:0;paint-order:normal;stroke:#000;stroke-dasharray:none;stroke-linecap:butt;stroke-linejoin:round;stroke-miterlimit:4;stroke-opacity:1;stroke-width:3.175" d="m24.352 21.437-2.564-9.568 5.547-5.547 3.736 13.943"/><path style="fill:#000;fill-opacity:0;paint-order:normal;stroke:#000;stroke-dasharray:none;stroke-linecap:butt;stroke-linejoin:round;stroke-miterlimit:4;stroke-opacity:1;stroke-width:3.175" d="m30.644 25.768 9.54-2.556 2.03-7.577-12.06 3.232"/></g></svg>
